X:1
T:The Door of God’s Mercy Is Open
T:The Door of God’s Mercy Is Open
T:E. B. Smith
T:Ellen Oliver Van Fleet, 1880
T:Public Domain Courtesy of the Cyber Hymnal™
T:Public Domain Courtesy of the Cyber Hymnal™
C:E. B. Smith
Z:Public Domain
Z:Courtesy of the Cyber Hymnal™
%%score 1 ( 2 3 )
L:1/8
Q:1/4=96
M:4/4
K:Eb
V:1 treble 
V:2 bass 
V:3 bass 
V:1
"^Duet" E2 | E2 EE E2 FG | A G3 z2 E2 | D2 EF F2 GF | E4 z2 E2 | E2 EE E2 FG | B A3 z2 F2 | %7
w: 1.~The|door of God’s mer- cy is|o- pen, To|all who are wea- ry of|sin. And|Je- sus is pa- tient- ly|wait- ing, Still|
w: 2.~The|world is e’er wan- ton- ly|woo- ing Your|soul from the ways of the|blest; But|Je- sus is ten- der- ly|bid- ding You|
w: 3.~So|ma- ny who hear the glad|mes- sage Will|ne- ver its man- dates o-|bey, But|turn from the pre- cious, dear|plead- ings, And|
w: 4.~Sad|hearts there will sure- ly be|mourn- ing Out-|side of the gate- way of|life, And|pray- ing to Him they re-|ject- ed When|
w: 5.~The|door of God’s mer- cy is|o- pen, In-|vit- ing- ly o- pen to|all Who|list to the voice of the|Mas- ter, And|
 E G2 E D F2 D | E6 z2 ||"^Refrain" [Ge]2 [Ge][Ge] [Ge]2 [Bd][Ac] | [Ac]2 [GB][GB] [GB]2 z [EG] | %11
w: wait- ing, to wel- come you|in.|||
w: turn to His heav- en- ly|rest.|||
w: will- ful- ly wan- der a-|way.|“Come,” says the Sav- ior, “come|en- ter the gate; I|
w: earth with gay plea- sures was|rife.|||
w: hear- ing shall heed His sweet|call.|||
 [EG]2 [GB][EG] [EG]2 [GB][EG] | [EG]2 [DF][DF] [DF]3 [EG] | [EG]2 [EG][FA] [GB]3 [EG] | %14
w: |||
w: |||
w: watch by the por- tals both|ear- ly and late, Lest|some pre- cious soul, not|
w: |||
w: |||
 [EG]2 [EG][FA] [GB]3 [EG] | [EG]2 [EG][EG] [EG]2 [FA][GB] | [Bd]2 [Ac][Ac] [FA]2 z [CF] | %17
w: |||
w: |||
w: far from the goal, Should|wan- der a- way in- to|dark- ness and hate, And|
w: |||
w: |||
 [B,E][EG] z [B,E] [B,E][EG] z [B,E] | [B,D]2 [B,F]2 [B,E]2 |] %19
w: ||
w: ||
w: miss it for- ev- er, the|pearl- y gate.”|
w: ||
w: ||
V:2
 [E,G,]2 | G,2 G,G, G,2 A,B, | C B,3 z2 [E,G,]2 | F,2 G,A, A,2 B,A, | [E,G,]4 z2 [E,G,]2 | %5
 G,2 G,G, G,2 A,B, | D C3 z2 [A,,A,]2 | G, B,2 G, F, A,2 F, | [E,G,]6 z2 || %9
 [E,B,]2 [E,B,][E,B,] [E,B,]2 [E,E][E,E] | [E,E]2 [E,E][E,E] [E,E]2 z [E,B,] | %11
 [E,B,]2 [E,E][E,B,] [E,B,]2 [E,E][E,B,] | [B,,B,]2 [B,,B,][B,,B,] [B,,B,]3 [E,B,] | %13
 [E,B,]2 [E,B,][E,B,] [E,B,]3 [E,B,] | [E,B,]2 [E,B,][E,B,] [E,B,]3 [E,B,] | %15
 [E,B,]2 [E,B,][E,B,] [E,B,]2 [E,B,][E,B,] | [A,E]2 [A,E][A,E] [A,,C]2 z [A,,A,] | %17
 [B,,G,][B,,B,] z [B,,G,] [B,,G,][B,,B,] z [B,,G,] | [B,,F,]2 [B,,A,]2 [E,G,]2 |] %19
V:3
 x2 | E,4 E,4 | E,4 x4 | B,,4 B,,4 | x8 | E,4 E,4 | A,,4 x4 | B,,4 B,,4 | x8 || x8 | x8 | x8 | x8 | %13
 x8 | x8 | x8 | x8 | x8 | x6 |] %19

